X:365
T:Rank Stranger
C:Ricky Skaggs - intro & turnaround
N:From the "Bluegrass Rules" CD Transcribed by Mike Stangeland
R:bluegrass
L:1/8
Q:1/4=155
M:3/4
K:F
z4 FF | A2 c2 d2 | "F"[f/c/][f/c/][f/c/][f/c/] [f/c/][f/c/][f/c/][f/c/] [f/c/][f/c/][f/c/][f/c/] | 
[f/c/][f/c/][f/c/][f/c/] [f/c/][f/c/][f/c/][f/c/] [f/c/][f/c/][f/c/][f/c/] | [f2c2] [fc]f dc | 
"C"[c/G/][c/A/][c/A/][c/A/] [c/A/][c/A/][cA] [cA][cG] | "F"[A4F4] FF | "Bb"{C}DF FG FD | 
"F"[A6F6C6] | z6 | z6 | z6 | z6 | z6 | z6 | z6 | z6 | z6 | z6 | z6 | z6 | z6 | 
z6 | z6 | 


